sharp/svg/camera.svg

<svg xmlns="http://www.w3.org/2000/svg" width="24" height="24"><path fill="none" d="M0 0h24v24H0V0z"/><g fill="currentColor"><path d="M9.4 10.5l4.77-8.26a9.984 9.984 0 0 0-8.49 2.01l3.66 6.35.06-.1zM21.54 9c-.92-2.92-3.15-5.26-6-6.34L11.88 9h9.66zm.26 1h-7.49l.29.5 4.76 8.25A9.91 9.91 0 0 0 22 12c0-.69-.07-1.35-.2-2zM8.54 12l-3.9-6.75A9.958 9.958 0 0 0 2.2 14h7.49l-1.15-2zm-6.08 3c.92 2.92 3.15 5.26 6 6.34L12.12 15H2.46zm11.27 0l-3.9 6.76a9.984 9.984 0 0 0 8.49-2.01l-3.66-6.35-.93 1.6z"/></g></svg>

<?xml version="1.0" encoding="utf-8"?>
<!-- Generator: Adobe Illustrator 19.1.0, SVG Export Plug-In . SVG Version: 6.00 Build 0)  -->
<svg version="1.1" xmlns="http://www.w3.org/2000/svg" xmlns:xlink="http://www.w3.org/1999/xlink" x="0px" y="0px" width="24px"
	 height="24px" viewBox="0 0 24 24" enable-background="new 0 0 24 24" xml:space="preserve">
<g id="Bounding_Boxes">
	<g id="ui_x5F_spec_x5F_header_copy_3">
	</g>
	<path fill="none" d="M0,0h24v24H0V0z"/>
</g>
<g id="Sharp" fill="currentColor">
	<g id="ui_x5F_spec_x5F_header_copy_2">
	</g>
	<path d="M9.4,10.5l4.77-8.26C13.47,2.09,12.75,2,12,2C9.6,2,7.4,2.85,5.68,4.25l3.66,6.35L9.4,10.5z M21.54,9
		c-0.92-2.92-3.15-5.26-6-6.34L11.88,9H21.54z M21.8,10h-7.49l0.29,0.5l4.76,8.25C21,16.97,22,14.61,22,12
		C22,11.31,21.93,10.65,21.8,10z M8.54,12l-3.9-6.75C3.01,7.03,2,9.39,2,12c0,0.69,0.07,1.35,0.2,2h7.49L8.54,12z M2.46,15
		c0.92,2.92,3.15,5.26,6,6.34L12.12,15H2.46z M13.73,15l-3.9,6.76C10.53,21.91,11.25,22,12,22c2.4,0,4.6-0.85,6.32-2.25l-3.66-6.35
		L13.73,15z"/>
</g>
</svg>
